_includes/icons/color-france.svg

<svg fill="#666" height="50" viewBox="0 0 48 48" width="50" xmlns="http://www.w3.org/2000/svg"><path d="m16 9h16v30h-16z" fill="#eceff1"/><path d="m32 9h14v30h-14z" fill="#ff3d00"/><path d="m2 9h14v30h-14z" fill="#3f51b5"/></svg>

<svg xmlns="http://www.w3.org/2000/svg" viewBox="0 0 48 48" width="50" height="50" fill="#666"><path d="M 16 9 L 32 9 L 32 39 L 16 39 Z" fill="#eceff1"/><path d="M 32 9 L 46 9 L 46 39 L 32 39 Z" fill="#ff3d00"/><path d="M 2 9 L 16 9 L 16 39 L 2 39 Z" fill="#3f51b5"/></svg>
